X:1
T:Axbridge, 66.66.88
T:Arthur Hugh Dalrymple Prendergast, 1889
T:Axbridge, 66.66.88
T:Public Domain
C:Arthur Hugh Dalrymple Prendergast, 1889
Z:Public Domain
%%score ( 1 2 ) ( 3 4 )
L:1/8
M:4/4
K:Eb
V:1 treble 
V:2 treble 
V:3 bass 
V:4 bass 
V:1
 [B,E]2 | [EG]2 [EB]2 [Ac]2 [FB]2 | [Ee]6 [EG]2 | [CA]2 [Ac]2 [GB]2 [EG]2 | [DF]6 [DF]2 | %5
 [EG]2 [GB]2 [Ge]2 [^Fd]2 | (d4 c2) [GB]2 | [F=A]2 [FG]2 =E2 z d x | [DB]6 [FB]2 | %9
 [Gc]2 [Af]2 [FB]2 [Ee]2 | [EA]2 [EG]2 [Ec]2 [Fd]2 | [Ee]2 [EG]2 F2 [B,G]2 | [CA]2 [DF]2 E2 |] %13
V:2
 x2 | x8 | x8 | x8 | x8 | x8 | G6 x2 | x4 c3 _E2 | x8 | x8 | x8 | x4 F2 x2 | x4 E2 |] %13
V:3
 [E,G,]2 | [E,B,]2 [G,E]2 [F,E]2 [B,D]2 | [G,B,]6 [C,C]2 | [F,A,]2 [D,F,]2 [E,B,]2 [G,B,]2 | %4
 B,6 [A,B,]2 | [G,B,]2 [E,B,]2 [C,=A,]2 [D,B,]2 | (B,4 G,2) [=E,C]2 | %7
 [F,C]2 [F,B,]2 [F,G,]2 [F,=A,]2 x | [B,,B,]6 [B,D]2 | [B,E]2 [A,C]2 [A,D]2 [G,B,]2 | %10
 [CE]2 [B,_D]2 [A,C]2 [A,B,]2 | [G,B,]2 [E,B,]2 [A,C]2 [G,E]2 | [F,A,]2 [B,,A,]2 [E,G,]2 |] %13
V:4
 x2 | x8 | x8 | x8 | B,6 x2 | x8 | =E,6 x2 | x9 | x8 | x8 | x8 | x8 | x6 |] %13

